img/youtube.svg

<svg fill="none" height="32" viewBox="0 0 32 32" width="32" xmlns="http://www.w3.org/2000/svg" xmlns:xlink="http://www.w3.org/1999/xlink"><clipPath id="a"><path d="m0 0h32v32h-32z"/></clipPath><g clip-path="url(#a)"><path d="m31.2899 8.31521c-.3727-1.37847-1.4481-2.4579-2.8266-2.82659-1.8516-.71484-19.78605-1.06509-24.9886.02049-1.37847.37278-2.4579 1.44811-2.826586 2.82658-.835686 3.66641-.899182 11.59311.020482 15.34141.372784 1.3785 1.448114 2.4579 2.826584 2.8266 3.66637.8438 21.09702.9626 24.98862 0 1.3785-.3728 2.4579-1.4481 2.8266-2.8266.891-3.9941.9545-11.4293-.0205-15.36189z" fill="#f00"/><path d="m21.2535 15.9961-8.3569-4.7929v9.5858z" fill="#fff"/></g></svg>

<svg width="32" height="32" viewBox="0 0 32 32" fill="none" xmlns="http://www.w3.org/2000/svg">
<g clip-path="url(#clip0_1289_2187)">
<path d="M31.2899 8.31521C30.9172 6.93674 29.8418 5.85731 28.4633 5.48862C26.6117 4.77378 8.67725 4.42353 3.4747 5.50911C2.09623 5.88189 1.0168 6.95722 0.648114 8.33569C-0.187572 12.0021 -0.251068 19.9288 0.668596 23.6771C1.04138 25.0556 2.11671 26.135 3.49518 26.5037C7.16155 27.3475 24.5922 27.4663 28.4838 26.5037C29.8623 26.1309 30.9417 25.0556 31.3104 23.6771C32.2014 19.683 32.2649 12.2478 31.2899 8.31521Z" fill="#FF0000"/>
<path d="M21.2535 15.9961L12.8966 11.2032V20.789L21.2535 15.9961Z" fill="white"/>
</g>
<defs>
<clipPath id="clip0_1289_2187">
<rect width="32" height="32" fill="white"/>
</clipPath>
</defs>
</svg>
